app/dist/common/images/mineralys_therapeutics.svg

<svg height="18" viewBox="0 0 18 18" width="18" xmlns="http://www.w3.org/2000/svg" xmlns:xlink="http://www.w3.org/1999/xlink"><linearGradient id="a" gradientUnits="userSpaceOnUse" x1="8.69" x2="9.2" y1="15.57" y2="3.43"><stop offset="0" stop-color="#5ccbf2"/><stop offset="1" stop-color="#6a7cbd"/></linearGradient><path d="m0 0h18v18h-18z" fill="#f0f3fa"/><path d="m10 7-3-3h1.3l.7-1zm3-2.59-1.33.35-1.08-.7.41 3.94zm2 3.88-1.2-.7-.21-1.41-2.59 3.7zm-1 3.71-.32-.91.6-1.09-3.28 1zm-3 3 .37-1.3 1.16-.46-3.53-1.77zm-4 0 .94-.7 1.06.28-1.59-3.58zm-3.3-2.82 1.3.15.82 1.26 1.18-4.09zm-.7-4.18.92 1-.21 1.41 3.29-2.41zm2.12-3.59.1 1.33-.8.79 3.58.47z" fill="url(#a)"/></svg>

<!-- by TradingView --><svg width="18" height="18" viewBox="0 0 18 18" xmlns="http://www.w3.org/2000/svg"><path fill="#F0F3FA" d="M0 0h18v18H0z"/><path d="M10 7 7 4h1.3L9 3l1 4Zm3-2.59-1.33.35-1.08-.7L11 8l2-3.59Zm2 3.88-1.2-.7-.21-1.41L11 9.88l4-1.59ZM14 12l-.32-.91.6-1.09L11 11l3 1Zm-3 3 .37-1.3 1.16-.46L9 11.47 11 15Zm-4 0 .94-.7 1.06.28L7.41 11 7 15Zm-3.3-2.82 1.3.15.82 1.26L7 9.5l-3.3 2.68ZM3 8l.92 1-.21 1.41L7 8H3Zm2.12-3.59.1 1.33-.8.79L8 7 5.12 4.41Z" fill="url(#aywzgsphk)"/><defs><linearGradient id="aywzgsphk" x1="8.69" y1="15.57" x2="9.2" y2="3.43" gradientUnits="userSpaceOnUse"><stop stop-color="#5CCBF2"/><stop offset="1" stop-color="#6A7CBD"/></linearGradient></defs></svg>
